app/images/star-white.svg

<svg width="20" height="19" viewBox="0 0 20 19" fill="none" xmlns="http://www.w3.org/2000/svg">
<path d="M10.9656 0.596462L13.2213 5.13691C13.3782 5.4527 13.6815 5.67152 14.0324 5.72208L19.0766 6.45022C19.9602 6.57787 20.3127 7.6562 19.6736 8.27494L16.0236 11.8092C15.7699 12.0549 15.654 12.4092 15.714 12.7561L16.5755 17.7466C16.7266 18.6207 15.8029 19.2871 15.0127 18.8747L10.5013 16.5187C10.1875 16.355 9.81247 16.355 9.49875 16.5187L4.98725 18.8747C4.19709 19.2875 3.27344 18.6207 3.42446 17.7466L4.28596 12.7561C4.34603 12.4092 4.23005 12.0549 3.9764 11.8092L0.326406 8.27494C-0.31273 7.65579 0.039796 6.57745 0.923405 6.45022L5.96765 5.72208C6.31851 5.67152 6.6218 5.4527 6.77867 5.13691L9.03441 0.596462C9.42908 -0.198821 10.5705 -0.198821 10.9656 0.596462Z" fill="white"/>
</svg>

<svg width="20" height="19" fill="none" xmlns="http://www.w3.org/2000/svg"><path d="M10.966.596l2.255 4.54c.157.317.46.536.811.586l5.045.728c.883.128 1.236 1.206.597 1.825l-3.65 3.534c-.254.246-.37.6-.31.947l.862 4.99c.15.875-.773 1.541-1.563 1.129L10.5 16.519a1.085 1.085 0 0 0-1.002 0l-4.512 2.356c-.79.413-1.714-.254-1.563-1.128l.862-4.99a1.065 1.065 0 0 0-.31-.948L.326 8.275C-.313 7.655.04 6.577.923 6.45l5.045-.728c.35-.05.654-.27.81-.585L9.035.597C9.43-.2 10.57-.2 10.966.596z" fill="#fff"/></svg>
